fs/document_bullet_list_multiple_24_regular.svg

<svg viewBox="0 0 24 24" fill="none" xmlns="http://www.w3.org/2000/svg" height="1em" width="1em">
  <path d="M7.75 11.5C7.33579 11.5 7 11.8358 7 12.25C7 12.6642 7.33579 13 7.75 13C8.16421 13 8.5 12.6642 8.5 12.25C8.5 11.8358 8.16421 11.5 7.75 11.5ZM7 15.25C7 14.8358 7.33579 14.5 7.75 14.5C8.16421 14.5 8.5 14.8358 8.5 15.25C8.5 15.6642 8.16421 16 7.75 16C7.33579 16 7 15.6642 7 15.25ZM10 12.25C10 11.8358 10.3358 11.5 10.75 11.5H13.8038C14.218 11.5 14.5538 11.8358 14.5538 12.25C14.5538 12.6642 14.218 13 13.8038 13H10.75C10.3358 13 10 12.6642 10 12.25ZM10.75 14.5C10.3358 14.5 10 14.8358 10 15.25C10 15.6642 10.3358 16 10.75 16H13.8038C14.218 16 14.5538 15.6642 14.5538 15.25C14.5538 14.8358 14.218 14.5 13.8038 14.5H10.75ZM6.25 2C5.00736 2 4 3.00736 4 4.25V17.25C4 18.4926 5.00736 19.5 6.25 19.5H15.25C16.4926 19.5 17.5 18.4926 17.5 17.25V8.86885C17.5 8.27211 17.2629 7.69981 16.841 7.27786L12.2221 2.65901C11.8002 2.23705 11.2279 2 10.6312 2H6.25ZM5.5 4.25C5.5 3.83579 5.83579 3.5 6.25 3.5H10.5039V6.74753C10.5039 7.99017 11.5113 8.99753 12.7539 8.99753H16V17.25C16 17.6642 15.6642 18 15.25 18H6.25C5.83579 18 5.5 17.6642 5.5 17.25V4.25ZM12.0039 6.74753V4.56209L14.9393 7.49753H12.7539C12.3397 7.49753 12.0039 7.16174 12.0039 6.74753ZM8.75088 22C7.77121 22 6.93778 21.3739 6.62891 20.5H15.2509C17.0458 20.5 18.5009 19.0449 18.5009 17.25V8.93689L19.3419 9.77788C19.7638 10.1998 20.0009 10.7721 20.0009 11.3689V17.25C20.0009 19.8734 17.8742 22 15.2509 22H8.75088Z" fill="#212121"/>
</svg>

<svg viewBox="0 0 24 24" fill="none" xmlns="http://www.w3.org/2000/svg" height="1em" width="1em">
  <path d="M7.75 11.5a.75.75 0 1 0 0 1.5.75.75 0 0 0 0-1.5ZM7 15.25a.75.75 0 1 1 1.5 0 .75.75 0 0 1-1.5 0Zm3-3a.75.75 0 0 1 .75-.75h3.054a.75.75 0 0 1 0 1.5H10.75a.75.75 0 0 1-.75-.75Zm.75 2.25a.75.75 0 0 0 0 1.5h3.054a.75.75 0 0 0 0-1.5H10.75ZM6.25 2A2.25 2.25 0 0 0 4 4.25v13a2.25 2.25 0 0 0 2.25 2.25h9a2.25 2.25 0 0 0 2.25-2.25V8.869a2.25 2.25 0 0 0-.659-1.591l-4.619-4.619A2.25 2.25 0 0 0 10.632 2H6.25ZM5.5 4.25a.75.75 0 0 1 .75-.75h4.254v3.248a2.25 2.25 0 0 0 2.25 2.25H16v8.252a.75.75 0 0 1-.75.75h-9a.75.75 0 0 1-.75-.75v-13Zm6.504 2.498V4.562l2.935 2.936h-2.185a.75.75 0 0 1-.75-.75ZM8.75 22a2.25 2.25 0 0 1-2.122-1.5h8.622a3.25 3.25 0 0 0 3.25-3.25V8.937l.84.84c.423.423.66.995.66 1.592v5.881A4.75 4.75 0 0 1 15.25 22h-6.5Z" fill="#212121"/>
</svg>
